src/assets/outline/Element4.svg

<?xml version="1.0" encoding="UTF-8"?>
<svg width="24" height="24" viewBox="0 0 24 24" xmlns="http://www.w3.org/2000/svg">
 <path d="m19.77 13.75h-4.04c-2.01 0-2.98-0.93-2.98-2.85v-6.8c0-1.92 0.98-2.85 2.98-2.85h4.04c2.01 0 2.98 0.93 2.98 2.85v6.8c0 1.92-0.98 2.85-2.98 2.85zm-4.04-11c-1.27 0-1.48 0.34-1.48 1.35v6.8c0 1.01 0.21 1.35 1.48 1.35h4.04c1.27 0 1.48-0.34 1.48-1.35v-6.8c0-1.01-0.21-1.35-1.48-1.35h-4.04z"/>
 <path d="m19.77 22.75h-4.04c-2.01 0-2.98-0.93-2.98-2.85v-1.8c0-1.92 0.98-2.85 2.98-2.85h4.04c2.01 0 2.98 0.93 2.98 2.85v1.8c0 1.92-0.98 2.85-2.98 2.85zm-4.04-6c-1.27 0-1.48 0.34-1.48 1.35v1.8c0 1.01 0.21 1.35 1.48 1.35h4.04c1.27 0 1.48-0.34 1.48-1.35v-1.8c0-1.01-0.21-1.35-1.48-1.35h-4.04z"/>
 <path d="m8.27 22.75h-4.04c-2.01 0-2.98-0.93-2.98-2.85v-6.8c0-1.92 0.98-2.85 2.98-2.85h4.04c2.01 0 2.98 0.93 2.98 2.85v6.8c0 1.92-0.98 2.85-2.98 2.85zm-4.04-11c-1.27 0-1.48 0.34-1.48 1.35v6.8c0 1.01 0.21 1.35 1.48 1.35h4.04c1.27 0 1.48-0.34 1.48-1.35v-6.8c0-1.01-0.21-1.35-1.48-1.35h-4.04z"/>
 <path d="m8.27 8.75h-4.04c-2.01 0-2.98-0.93-2.98-2.85v-1.8c0-1.92 0.98-2.85 2.98-2.85h4.04c2.01 0 2.98 0.93 2.98 2.85v1.8c0 1.92-0.98 2.85-2.98 2.85zm-4.04-6c-1.27 0-1.48 0.34-1.48 1.35v1.8c0 1.01 0.21 1.35 1.48 1.35h4.04c1.27 0 1.48-0.34 1.48-1.35v-1.8c0-1.01-0.21-1.35-1.48-1.35h-4.04z"/>
</svg>

<svg width="24" height="24" viewBox="0 0 24 24"  xmlns="http://www.w3.org/2000/svg">
<path d="M19.77 13.75H15.73C13.72 13.75 12.75 12.82 12.75 10.9V4.1C12.75 2.18 13.73 1.25 15.73 1.25H19.77C21.78 1.25 22.75 2.18 22.75 4.1V10.9C22.75 12.82 21.77 13.75 19.77 13.75ZM15.73 2.75C14.46 2.75 14.25 3.09 14.25 4.1V10.9C14.25 11.91 14.46 12.25 15.73 12.25H19.77C21.04 12.25 21.25 11.91 21.25 10.9V4.1C21.25 3.09 21.04 2.75 19.77 2.75H15.73Z" />
<path d="M19.77 22.75H15.73C13.72 22.75 12.75 21.82 12.75 19.9V18.1C12.75 16.18 13.73 15.25 15.73 15.25H19.77C21.78 15.25 22.75 16.18 22.75 18.1V19.9C22.75 21.82 21.77 22.75 19.77 22.75ZM15.73 16.75C14.46 16.75 14.25 17.09 14.25 18.1V19.9C14.25 20.91 14.46 21.25 15.73 21.25H19.77C21.04 21.25 21.25 20.91 21.25 19.9V18.1C21.25 17.09 21.04 16.75 19.77 16.75H15.73Z" />
<path d="M8.27 22.75H4.23C2.22 22.75 1.25 21.82 1.25 19.9V13.1C1.25 11.18 2.23 10.25 4.23 10.25H8.27C10.28 10.25 11.25 11.18 11.25 13.1V19.9C11.25 21.82 10.27 22.75 8.27 22.75ZM4.23 11.75C2.96 11.75 2.75 12.09 2.75 13.1V19.9C2.75 20.91 2.96 21.25 4.23 21.25H8.27C9.54 21.25 9.75 20.91 9.75 19.9V13.1C9.75 12.09 9.54 11.75 8.27 11.75H4.23Z" />
<path d="M8.27 8.75H4.23C2.22 8.75 1.25 7.82 1.25 5.9V4.1C1.25 2.18 2.23 1.25 4.23 1.25H8.27C10.28 1.25 11.25 2.18 11.25 4.1V5.9C11.25 7.82 10.27 8.75 8.27 8.75ZM4.23 2.75C2.96 2.75 2.75 3.09 2.75 4.1V5.9C2.75 6.91 2.96 7.25 4.23 7.25H8.27C9.54 7.25 9.75 6.91 9.75 5.9V4.1C9.75 3.09 9.54 2.75 8.27 2.75H4.23Z" />
</svg>
